src/Assets/IconV2/ic-bg-cluster.svg

<svg width="24" height="24" viewBox="0 0 24 24" fill="none" xmlns="http://www.w3.org/2000/svg">
<rect width="24" height="24" rx="6" fill="var(--V100)"/>
<path d="M8.75238 10.875L12 12.75L12.0001 16.5L9.25248 18.0863C8.94308 18.265 8.56188 18.265 8.25248 18.0863L6.00488 16.7887C5.69548 16.61 5.50488 16.2799 5.50488 15.9226V13.3273C5.50488 12.9701 5.69548 12.64 6.00487 12.4613L8.75238 10.875Z" fill="var(--V300)"/>
<path d="M14.7475 6.83632L12.4999 5.53868C12.1905 5.36004 11.8093 5.36004 11.4999 5.53868L9.25232 6.83632C8.94292 7.01496 8.75232 7.34508 8.75232 7.70235V10.875L11.9999 12.75L15.2475 10.875V7.70235C15.2475 7.34508 15.0569 7.01496 14.7475 6.83632Z" fill="var(--V200)"/>
<path d="M12 12.75L15.2476 10.875L17.9951 12.4613C18.3045 12.64 18.4951 12.9701 18.4951 13.3273V15.9226C18.4951 16.2799 18.3045 16.61 17.9951 16.7887L15.7475 18.0863C15.4381 18.265 15.0569 18.2649 14.7475 18.0863L12.0001 16.5L12 12.75Z" fill="var(--V500)"/>
</svg>

<svg xmlns="http://www.w3.org/2000/svg" width="24" height="24" fill="none" viewBox="0 0 24 24">
  <g clip-path="url(#a)">
    <rect width="24" height="24" fill="#F3F0FF" rx="6"/>
    <path fill="#A393F5" d="M8.752 10.875 12 12.75v3.75l-2.748 1.586a1 1 0 0 1-1 0L6.005 16.79a1 1 0 0 1-.5-.866v-2.596a1 1 0 0 1 .5-.866l2.747-1.586Z"/>
    <path fill="#C5BBFA" d="M14.748 6.836 12.5 5.54a1 1 0 0 0-1 0L9.252 6.836a1 1 0 0 0-.5.866v3.173L12 12.75l3.248-1.875V7.702a1 1 0 0 0-.5-.866Z"/>
    <path fill="#664BEE" d="m12 12.75 3.248-1.875 2.747 1.586a1 1 0 0 1 .5.866v2.596a1 1 0 0 1-.5.866l-2.248 1.297a1 1 0 0 1-1 0L12 16.5v-3.75Z"/>
  </g>
  <defs>
    <clipPath id="a">
      <path fill="#fff" d="M0 0h24v24H0z"/>
    </clipPath>
  </defs>
</svg>
